austria/municipalities/70932.svg

<?xml version="1.0" encoding="UTF-8"?>
<!DOCTYPE svg PUBLIC "-//W3C//DTD SVG 1.1//EN" "http://www.w3.org/Graphics/SVG/1.1/DTD/svg11.dtd">
<svg xmlns="http://www.w3.org/2000/svg" version="1.1" width="166px" height="192px" style="shape-rendering:geometricPrecision; text-rendering:geometricPrecision; image-rendering:optimizeQuality; fill-rule:evenodd; clip-rule:evenodd" xmlns:xlink="http://www.w3.org/1999/xlink">
<g><path style="opacity:1" fill="#020201" d="M -0.5,-0.5 C 54.8333,-0.5 110.167,-0.5 165.5,-0.5C 165.5,39.5 165.5,79.5 165.5,119.5C 157.038,159.629 132.705,183.629 92.5,191.5C 85.5,191.5 78.5,191.5 71.5,191.5C 30.9171,182.918 6.91707,158.251 -0.5,117.5C -0.5,78.1667 -0.5,38.8333 -0.5,-0.5 Z"/></g>
<g><path style="opacity:1" fill="#3b2f17" d="M 3.5,3.5 C 56.1667,2.16667 108.833,2.16667 161.5,3.5C 135.5,3.5 109.5,3.5 83.5,3.5C 82.8333,3.83333 82.1667,4.16667 81.5,4.5C 55.672,3.5022 29.672,3.16887 3.5,3.5 Z"/></g>
<g><path style="opacity:1" fill="#e7a51c" d="M 3.5,3.5 C 29.672,3.16887 55.672,3.5022 81.5,4.5C 79.5871,14.4969 76.9204,24.1636 73.5,33.5C 71.7885,28.4103 69.2885,23.7436 66,19.5C 63.0593,29.4864 60.226,39.4864 57.5,49.5C 55.3919,45.5995 53.0585,41.9328 50.5,38.5C 50.0533,35.4761 49.22,35.1428 48,37.5C 46.1781,44.7848 44.6781,52.1181 43.5,59.5C 42.5655,60.5676 42.2322,61.901 42.5,63.5C 41.9779,65.2191 40.9779,66.5525 39.5,67.5C 39.3465,65.0301 38.3465,63.0301 36.5,61.5C 35.705,58.5766 34.3716,55.9099 32.5,53.5C 29.201,63.6949 26.3677,74.0283 24,84.5C 23.6174,83.944 23.1174,83.6107 22.5,83.5C 21.3411,79.8487 19.6744,76.5154 17.5,73.5C 17.2914,72.0783 16.7914,70.745 16,69.5C 11.6911,84.0676 7.69112,98.7343 4,113.5C 3.50001,76.8348 3.33335,40.1682 3.5,3.5 Z"/></g>
<g><path style="opacity:1" fill="#e7a51c" d="M 83.5,3.5 C 109.5,3.5 135.5,3.5 161.5,3.5C 161.832,40.0038 161.498,76.3372 160.5,112.5C 159.279,104.526 157.279,96.8591 154.5,89.5C 153.947,84.1935 152.614,79.1935 150.5,74.5C 150.769,72.5714 150.269,70.9047 149,69.5C 146.588,74.6587 143.921,79.6587 141,84.5C 138.94,73.9249 136.107,63.5915 132.5,53.5C 129.746,58.0077 127.246,62.6743 125,67.5C 124.617,66.944 124.117,66.6107 123.5,66.5C 123.768,64.901 123.434,63.5676 122.5,62.5C 121.119,53.3113 118.953,44.3113 116,35.5C 113.628,38.9099 111.795,42.5766 110.5,46.5C 109.21,47.0577 108.377,48.0577 108,49.5C 105.582,41.4156 103.082,33.4156 100.5,25.5C 100.628,23.3453 100.128,21.3453 99,19.5C 97.9614,20.2438 97.4614,21.2438 97.5,22.5C 95.9925,24.1815 94.9925,26.1815 94.5,28.5C 92.8639,29.7489 91.6972,31.4156 91,33.5C 88.6295,24.3384 86.1295,15.3384 83.5,6.5C 83.5,5.5 83.5,4.5 83.5,3.5 Z"/></g>
<g><path style="opacity:1" fill="#11140b" d="M 83.5,3.5 C 83.5,4.5 83.5,5.5 83.5,6.5C 80.2392,15.5249 77.5725,24.8583 75.5,34.5C 75.1667,35.1667 74.8333,35.8333 74.5,36.5C 73.6143,35.675 73.281,34.675 73.5,33.5C 76.9204,24.1636 79.5871,14.4969 81.5,4.5C 82.1667,4.16667 82.8333,3.83333 83.5,3.5 Z"/></g>
<g><path style="opacity:1" fill="#185b2a" d="M 83.5,6.5 C 85.2004,16.6358 87.5338,26.6358 90.5,36.5C 92.3716,34.0901 93.705,31.4234 94.5,28.5C 94.9925,26.1815 95.9925,24.1815 97.5,22.5C 98.8999,23.0998 99.8999,24.0998 100.5,25.5C 101.948,34.7464 104.282,43.7464 107.5,52.5C 109.038,50.7567 110.038,48.7567 110.5,46.5C 112.39,44.4099 114.057,42.0765 115.5,39.5C 117.971,47.2428 120.304,54.9095 122.5,62.5C 123.434,63.5676 123.768,64.901 123.5,66.5C 123.34,68.1992 123.506,69.8659 124,71.5C 126.921,66.6587 129.588,61.6587 132,56.5C 132.333,56.8333 132.667,57.1667 133,57.5C 135.369,67.6482 138.036,77.6482 141,87.5C 143.921,82.6587 146.588,77.6587 149,72.5C 149.278,73.4158 149.778,74.0825 150.5,74.5C 150.836,79.8858 152.17,84.8858 154.5,89.5C 155.741,97.4696 157.741,105.136 160.5,112.5C 161.253,123.559 158.753,133.892 153,143.5C 129.816,129.242 106.483,115.242 83,101.5C 59.0827,115.086 35.4161,129.086 12,143.5C 7.8976,135.857 5.3976,127.69 4.5,119C 7.91774,103.41 11.7511,87.9103 16,72.5C 16.3826,73.056 16.8826,73.3893 17.5,73.5C 19.6744,76.5154 21.3411,79.8487 22.5,83.5C 22.7086,84.9217 23.2086,86.255 24,87.5C 24.3333,87.1667 24.6667,86.8333 25,86.5C 27.6689,76.4835 30.3356,66.4835 33,56.5C 33.6972,58.5844 34.8639,60.2511 36.5,61.5C 38.3465,63.0301 39.3465,65.0301 39.5,67.5C 39.7086,68.9217 40.2086,70.255 41,71.5C 42.0793,68.9373 42.5793,66.2706 42.5,63.5C 42.2322,61.901 42.5655,60.5676 43.5,59.5C 45.6357,52.4262 47.969,45.4262 50.5,38.5C 52.4617,43.7568 54.9617,48.7568 58,53.5C 60.9198,43.5674 63.5865,33.5674 66,23.5C 66.3333,23.1667 66.6667,22.8333 67,22.5C 68.6891,26.5599 70.8558,30.2266 73.5,33.5C 73.281,34.675 73.6143,35.675 74.5,36.5C 74.8333,35.8333 75.1667,35.1667 75.5,34.5C 77.5725,24.8583 80.2392,15.5249 83.5,6.5 Z"/></g>
<g><path style="opacity:1" fill="#17160c" d="M 83.5,6.5 C 86.1295,15.3384 88.6295,24.3384 91,33.5C 91.6972,31.4156 92.8639,29.7489 94.5,28.5C 93.705,31.4234 92.3716,34.0901 90.5,36.5C 87.5338,26.6358 85.2004,16.6358 83.5,6.5 Z"/></g>
<g><path style="opacity:1" fill="#100e07" d="M 100.5,25.5 C 99.8999,24.0998 98.8999,23.0998 97.5,22.5C 97.4614,21.2438 97.9614,20.2438 99,19.5C 100.128,21.3453 100.628,23.3453 100.5,25.5 Z"/></g>
<g><path style="opacity:1" fill="#1a190f" d="M 122.5,62.5 C 120.304,54.9095 117.971,47.2428 115.5,39.5C 114.057,42.0765 112.39,44.4099 110.5,46.5C 111.795,42.5766 113.628,38.9099 116,35.5C 118.953,44.3113 121.119,53.3113 122.5,62.5 Z"/></g>
<g><path style="opacity:1" fill="#1b180e" d="M 50.5,38.5 C 47.969,45.4262 45.6357,52.4262 43.5,59.5C 44.6781,52.1181 46.1781,44.7848 48,37.5C 49.22,35.1428 50.0533,35.4761 50.5,38.5 Z"/></g>
<g><path style="opacity:1" fill="#19190f" d="M 73.5,33.5 C 70.8558,30.2266 68.6891,26.5599 67,22.5C 66.6667,22.8333 66.3333,23.1667 66,23.5C 63.5865,33.5674 60.9198,43.5674 58,53.5C 54.9617,48.7568 52.4617,43.7568 50.5,38.5C 53.0585,41.9328 55.3919,45.5995 57.5,49.5C 60.226,39.4864 63.0593,29.4864 66,19.5C 69.2885,23.7436 71.7885,28.4103 73.5,33.5 Z"/></g>
<g><path style="opacity:1" fill="#1e1c10" d="M 100.5,25.5 C 103.082,33.4156 105.582,41.4156 108,49.5C 108.377,48.0577 109.21,47.0577 110.5,46.5C 110.038,48.7567 109.038,50.7567 107.5,52.5C 104.282,43.7464 101.948,34.7464 100.5,25.5 Z"/></g>
<g><path style="opacity:1" fill="#1e1b10" d="M 36.5,61.5 C 34.8639,60.2511 33.6972,58.5844 33,56.5C 30.3356,66.4835 27.6689,76.4835 25,86.5C 24.6667,86.8333 24.3333,87.1667 24,87.5C 23.2086,86.255 22.7086,84.9217 22.5,83.5C 23.1174,83.6107 23.6174,83.944 24,84.5C 26.3677,74.0283 29.201,63.6949 32.5,53.5C 34.3716,55.9099 35.705,58.5766 36.5,61.5 Z"/></g>
<g><path style="opacity:1" fill="#1c1a0f" d="M 150.5,74.5 C 149.778,74.0825 149.278,73.4158 149,72.5C 146.588,77.6587 143.921,82.6587 141,87.5C 138.036,77.6482 135.369,67.6482 133,57.5C 132.667,57.1667 132.333,56.8333 132,56.5C 129.588,61.6587 126.921,66.6587 124,71.5C 123.506,69.8659 123.34,68.1992 123.5,66.5C 124.117,66.6107 124.617,66.944 125,67.5C 127.246,62.6743 129.746,58.0077 132.5,53.5C 136.107,63.5915 138.94,73.9249 141,84.5C 143.921,79.6587 146.588,74.6587 149,69.5C 150.269,70.9047 150.769,72.5714 150.5,74.5 Z"/></g>
<g><path style="opacity:1" fill="#0f140b" d="M 42.5,63.5 C 42.5793,66.2706 42.0793,68.9373 41,71.5C 40.2086,70.255 39.7086,68.9217 39.5,67.5C 40.9779,66.5525 41.9779,65.2191 42.5,63.5 Z"/></g>
<g><path style="opacity:1" fill="#1d1a0f" d="M 150.5,74.5 C 152.614,79.1935 153.947,84.1935 154.5,89.5C 152.17,84.8858 150.836,79.8858 150.5,74.5 Z"/></g>
<g><path style="opacity:1" fill="#1d190f" d="M 154.5,89.5 C 157.279,96.8591 159.279,104.526 160.5,112.5C 157.741,105.136 155.741,97.4696 154.5,89.5 Z"/></g>
<g><path style="opacity:1" fill="#fdfdfd" d="M -0.5,117.5 C 6.91707,158.251 30.9171,182.918 71.5,191.5C 47.5,191.5 23.5,191.5 -0.5,191.5C -0.5,166.833 -0.5,142.167 -0.5,117.5 Z"/></g>
<g><path style="opacity:1" fill="#fdfdfd" d="M 165.5,119.5 C 165.5,143.5 165.5,167.5 165.5,191.5C 141.167,191.5 116.833,191.5 92.5,191.5C 132.705,183.629 157.038,159.629 165.5,119.5 Z"/></g>
</svg>

<svg xmlns="http://www.w3.org/2000/svg" width="166" height="192" style="shape-rendering:geometricPrecision;text-rendering:geometricPrecision;image-rendering:optimizeQuality;fill-rule:evenodd;clip-rule:evenodd"><path style="opacity:1" fill="#020201" d="M-.5-.5h166v120c-8.462 40.129-32.795 64.129-73 72h-21c-40.583-8.582-64.583-33.249-72-74V-.5z"/><path style="opacity:1" fill="#3b2f17" d="M3.5 3.5a3121.008 3121.008 0 0 1 158 0h-78l-2 1a1521.602 1521.602 0 0 0-78-1z"/><path style="opacity:1" fill="#e7a51c" d="M3.5 3.5c26.172-.331 52.172.002 78 1-1.913 9.997-4.58 19.664-8 29a47.319 47.319 0 0 0-7.5-14 1514.565 1514.565 0 0 0-8.5 30 89.904 89.904 0 0 0-7-11c-.447-3.024-1.28-3.357-2.5-1a258.632 258.632 0 0 0-4.5 22c-.934 1.068-1.268 2.401-1 4-.522 1.72-1.522 3.052-3 4-.154-2.47-1.154-4.47-3-6a22.584 22.584 0 0 0-4-8 354.76 354.76 0 0 0-8.5 31c-.383-.556-.883-.89-1.5-1-1.159-3.651-2.826-6.985-5-10a10.123 10.123 0 0 0-1.5-4 1069.857 1069.857 0 0 0-12 44 6050.43 6050.43 0 0 1-.5-110zM83.5 3.5h78c.332 36.504-.002 72.837-1 109-1.221-7.974-3.221-15.64-6-23-.553-5.306-1.886-10.306-4-15 .269-1.929-.231-3.595-1.5-5a161.074 161.074 0 0 1-8 15 212.93 212.93 0 0 0-8.5-31 140.729 140.729 0 0 0-7.5 14c-.383-.556-.883-.89-1.5-1 .268-1.599-.066-2.932-1-4a159.324 159.324 0 0 0-6.5-27 42.486 42.486 0 0 0-5.5 11c-1.29.558-2.123 1.558-2.5 3a1018.716 1018.716 0 0 0-7.5-24 10.1 10.1 0 0 0-1.5-6c-1.039.744-1.539 1.744-1.5 3-1.507 1.681-2.507 3.681-3 6-1.636 1.249-2.803 2.916-3.5 5a778.924 778.924 0 0 0-7.5-27v-3z"/><path style="opacity:1" fill="#11140b" d="M83.5 3.5v3c-3.26 9.025-5.927 18.358-8 28l-1 2c-.886-.825-1.219-1.825-1-3 3.42-9.336 6.087-19.003 8-29l2-1z"/><path style="opacity:1" fill="#185b2a" d="M83.5 6.5a244.628 244.628 0 0 0 7 30 22.584 22.584 0 0 0 4-8c.493-2.319 1.493-4.319 3-6 1.4.6 2.4 1.6 3 3a141.514 141.514 0 0 0 7 27 12.807 12.807 0 0 0 3-6 38.273 38.273 0 0 0 5-7 880.794 880.794 0 0 1 7 23c.934 1.068 1.268 2.401 1 4-.16 1.7.006 3.366.5 5a161.074 161.074 0 0 0 8-15l1 1a493.504 493.504 0 0 0 8 30 161.074 161.074 0 0 0 8-15c.278.916.778 1.582 1.5 2 .336 5.386 1.67 10.386 4 15 1.241 7.97 3.241 15.636 6 23 .753 11.059-1.747 21.392-7.5 31a3725.302 3725.302 0 0 0-70-42 2343.92 2343.92 0 0 0-71 42c-4.102-7.643-6.602-15.81-7.5-24.5A899.97 899.97 0 0 1 16 72.5c.383.556.883.89 1.5 1 2.174 3.015 3.841 6.349 5 10a10.123 10.123 0 0 0 1.5 4l1-1c2.669-10.016 5.336-20.016 8-30 .697 2.084 1.864 3.751 3.5 5 1.846 1.53 2.846 3.53 3 6a10.123 10.123 0 0 0 1.5 4 18.982 18.982 0 0 0 1.5-8c-.268-1.599.066-2.932 1-4a387.41 387.41 0 0 1 7-21 78.831 78.831 0 0 0 7.5 15 613.403 613.403 0 0 0 8-30l1-1c1.69 4.06 3.856 7.727 6.5 11-.219 1.175.114 2.175 1 3l1-2c2.073-9.642 4.74-18.975 8-28z"/><path style="opacity:1" fill="#17160c" d="M83.5 6.5a778.924 778.924 0 0 1 7.5 27c.697-2.084 1.864-3.751 3.5-5a22.584 22.584 0 0 1-4 8 244.628 244.628 0 0 1-7-30z"/><path style="opacity:1" fill="#100e07" d="M100.5 25.5c-.6-1.4-1.6-2.4-3-3-.039-1.256.461-2.256 1.5-3a10.1 10.1 0 0 1 1.5 6z"/><path style="opacity:1" fill="#1a190f" d="M122.5 62.5a880.794 880.794 0 0 0-7-23 38.273 38.273 0 0 1-5 7 42.486 42.486 0 0 1 5.5-11 159.324 159.324 0 0 1 6.5 27z"/><path style="opacity:1" fill="#1b180e" d="M50.5 38.5a387.41 387.41 0 0 0-7 21 258.632 258.632 0 0 1 4.5-22c1.22-2.357 2.053-2.024 2.5 1z"/><path style="opacity:1" fill="#19190f" d="M73.5 33.5c-2.644-3.273-4.81-6.94-6.5-11l-1 1a613.403 613.403 0 0 1-8 30 78.831 78.831 0 0 1-7.5-15 89.904 89.904 0 0 1 7 11 1514.565 1514.565 0 0 1 8.5-30 47.319 47.319 0 0 1 7.5 14z"/><path style="opacity:1" fill="#1e1c10" d="M100.5 25.5a1018.716 1018.716 0 0 1 7.5 24c.377-1.442 1.21-2.442 2.5-3a12.807 12.807 0 0 1-3 6 141.514 141.514 0 0 1-7-27z"/><path style="opacity:1" fill="#1e1b10" d="M36.5 61.5c-1.636-1.249-2.803-2.916-3.5-5-2.664 9.984-5.331 19.984-8 30l-1 1a10.123 10.123 0 0 1-1.5-4c.617.11 1.117.444 1.5 1a354.76 354.76 0 0 1 8.5-31 22.584 22.584 0 0 1 4 8z"/><path style="opacity:1" fill="#1c1a0f" d="M150.5 74.5c-.722-.418-1.222-1.084-1.5-2a161.074 161.074 0 0 1-8 15 493.504 493.504 0 0 1-8-30l-1-1a161.074 161.074 0 0 1-8 15 12.93 12.93 0 0 1-.5-5c.617.11 1.117.444 1.5 1a140.729 140.729 0 0 1 7.5-14 212.93 212.93 0 0 1 8.5 31 161.074 161.074 0 0 0 8-15c1.269 1.405 1.769 3.071 1.5 5z"/><path style="opacity:1" fill="#0f140b" d="M42.5 63.5c.08 2.77-.42 5.437-1.5 8a10.123 10.123 0 0 1-1.5-4c1.478-.948 2.478-2.28 3-4z"/><path style="opacity:1" fill="#1d1a0f" d="M150.5 74.5c2.114 4.694 3.447 9.694 4 15-2.33-4.614-3.664-9.614-4-15z"/><path style="opacity:1" fill="#1d190f" d="M154.5 89.5c2.779 7.36 4.779 15.026 6 23-2.759-7.364-4.759-15.03-6-23z"/><path style="opacity:1" fill="#fdfdfd" d="M-.5 117.5c7.417 40.751 31.417 65.418 72 74h-72v-74zM165.5 119.5v72h-73c40.205-7.871 64.538-31.871 73-72z"/></svg>
